src/assets/image/block12/Professional 1.svg

<svg width="150" height="29" viewBox="0 0 150 29" fill="none" xmlns="http://www.w3.org/2000/svg">
<g clip-path="url(#clip0_201_3883)">
<path d="M0 2.85418C0 1.27786 1.28062 0 2.86033 0H25.743C27.3227 0 28.6033 1.27786 28.6033 2.85418V25.6876C28.6033 27.2639 27.3227 28.5418 25.743 28.5418H2.86033C1.28062 28.5418 0 27.2639 0 25.6876V2.85418Z" fill="#101010"/>
<path d="M41.1255 26.2744L40.8289 25.5118H40.7887C40.5306 25.8362 40.264 26.062 39.9892 26.1891C39.7177 26.3129 39.3624 26.3747 38.9233 26.3747C38.3836 26.3747 37.958 26.2209 37.6462 25.9131C37.3378 25.6054 37.1836 25.1673 37.1836 24.5987C37.1836 24.0033 37.3914 23.5652 37.8071 23.2841C38.2261 22.9998 38.8563 22.8427 39.6976 22.8126L40.673 22.7824V22.5366C40.673 21.968 40.3814 21.6837 39.7982 21.6837C39.3489 21.6837 38.821 21.8192 38.2144 22.0901L37.7065 21.0566C38.3535 20.7188 39.0708 20.5498 39.8585 20.5498C40.6127 20.5498 41.1908 20.7137 41.5931 21.0415C41.9953 21.3693 42.1965 21.8677 42.1965 22.5366V26.2744H41.1255ZM40.673 23.6755L40.0797 23.6956C39.6339 23.7089 39.3021 23.7892 39.0842 23.9364C38.8663 24.0836 38.7574 24.3076 38.7574 24.6087C38.7574 25.0401 39.0054 25.2559 39.5015 25.2559C39.8568 25.2559 40.14 25.1539 40.3512 24.9499C40.5657 24.7458 40.673 24.4749 40.673 24.1371V23.6755Z" fill="#101010"/>
<path d="M56.0247 22.1351C56.0247 22.4361 55.9292 22.6936 55.7381 22.9077C55.5504 23.1184 55.2722 23.2539 54.9035 23.314V23.3542C55.3024 23.401 55.6175 23.5382 55.8487 23.7656C56.0834 23.9897 56.2007 24.2673 56.2007 24.5985C56.2007 25.1437 55.9862 25.5601 55.5572 25.8477C55.1281 26.132 54.5147 26.2742 53.7169 26.2742H50.8359V20.665H53.7169C54.4879 20.665 55.0644 20.7905 55.4466 21.0413C55.832 21.2888 56.0247 21.6534 56.0247 22.1351ZM54.6119 24.5182C54.6119 24.2974 54.5264 24.1386 54.3555 24.0416C54.1845 23.9412 53.9281 23.8911 53.5862 23.8911H52.3694V25.2156H53.6164C53.9415 25.2156 54.1879 25.1554 54.3555 25.035C54.5264 24.9112 54.6119 24.739 54.6119 24.5182ZM54.4711 22.2555C54.4711 21.9143 54.1996 21.7437 53.6566 21.7437H52.3694V22.8525H53.4806C53.8058 22.8525 54.0521 22.8057 54.2198 22.7121C54.3873 22.6183 54.4711 22.4662 54.4711 22.2555Z" fill="#101010"/>
<path d="M69.1252 20.665V21.814H67.285V26.2742H65.7514V21.814H63.9062V20.665H69.1252Z" fill="#101010"/>
<path d="M78.4504 23.4605C78.4504 24.0157 78.5409 24.4354 78.7219 24.7197C78.9063 25.004 79.2046 25.1462 79.6169 25.1462C80.0258 25.1462 80.3191 25.0057 80.4968 24.7248C80.6778 24.4405 80.7682 24.019 80.7682 23.4605C80.7682 22.9051 80.6778 22.4888 80.4968 22.2111C80.3158 21.9336 80.0191 21.7947 79.6069 21.7947C79.1979 21.7947 78.9029 21.9336 78.7219 22.2111C78.5409 22.4854 78.4504 22.9019 78.4504 23.4605ZM82.337 23.4605C82.337 24.3735 82.0957 25.0876 81.6129 25.6027C81.1303 26.1178 80.4582 26.3753 79.5968 26.3753C79.0571 26.3753 78.5812 26.2583 78.1688 26.0241C77.7565 25.7867 77.4398 25.4472 77.2186 25.0057C76.9973 24.5641 76.8867 24.0491 76.8867 23.4605C76.8867 22.544 77.1263 21.8315 77.6057 21.3232C78.085 20.8147 78.7588 20.5605 79.6269 20.5605C80.1667 20.5605 80.6426 20.6776 81.0548 20.9117C81.4672 21.1459 81.7839 21.482 82.0052 21.9202C82.2263 22.3584 82.337 22.8718 82.337 23.4605Z" fill="#101010"/>
<path d="M95.9748 25.1554H96.7942V28.2861H95.4161V26.2742H90.6602V20.665H92.1936V25.1252H94.4364V20.665H95.9748V25.1554Z" fill="#101010"/>
<path d="M107.131 21.6493C106.806 21.6493 106.551 21.7529 106.367 21.9603C106.182 22.1643 106.076 22.4553 106.05 22.8333H108.202C108.195 22.4553 108.097 22.1643 107.905 21.9603C107.714 21.7529 107.456 21.6493 107.131 21.6493ZM107.347 26.3753C106.442 26.3753 105.735 26.1262 105.225 25.6278C104.716 25.1295 104.461 24.4237 104.461 23.5106C104.461 22.5707 104.695 21.8449 105.165 21.3332C105.638 20.8181 106.289 20.5605 107.121 20.5605C107.916 20.5605 108.533 20.7863 108.976 21.2378C109.418 21.6894 109.64 22.3132 109.64 23.1092V23.8518H106.014C106.031 24.2866 106.161 24.6261 106.402 24.8702C106.643 25.1144 106.982 25.2365 107.418 25.2365C107.756 25.2365 108.076 25.2014 108.378 25.1311C108.68 25.0609 108.995 24.9488 109.323 24.795V25.979C109.055 26.1128 108.769 26.2114 108.463 26.275C108.158 26.3419 107.786 26.3753 107.347 26.3753Z" fill="#101010"/>
<path d="M119.473 20.665V22.8224H121.614V20.665H123.148V26.2742H121.614V23.9613H119.473V26.2742H117.939V20.665H119.473Z" fill="#101010"/>
<path d="M136.461 20.665V21.814H134.621V26.2742H133.087V21.814H131.242V20.665H136.461Z" fill="#101010"/>
<path d="M147.654 26.3753C146.993 26.3753 146.475 26.1362 146.1 25.6579H146.02C146.073 26.1262 146.1 26.3971 146.1 26.4707V28.7434H144.566V20.6659H145.813L146.029 21.3934H146.1C146.458 20.8381 146.99 20.5605 147.694 20.5605C148.358 20.5605 148.877 20.8164 149.252 21.3281C149.628 21.8399 149.815 22.5506 149.815 23.4605C149.815 24.0592 149.726 24.5792 149.549 25.0207C149.375 25.4622 149.125 25.7984 148.8 26.0292C148.475 26.26 148.092 26.3753 147.654 26.3753ZM147.201 21.7847C146.822 21.7847 146.545 21.9018 146.371 22.1359C146.197 22.3667 146.107 22.7497 146.1 23.2848V23.4504C146.1 24.0524 146.188 24.4839 146.366 24.7448C146.547 25.0057 146.832 25.1361 147.221 25.1361C147.909 25.1361 148.252 24.5709 148.252 23.4403C148.252 22.8885 148.166 22.4754 147.995 22.2011C147.828 21.9235 147.563 21.7847 147.201 21.7847Z" fill="#101010"/>
<path d="M11.4425 25.1167H5.72186L3.43359 20.0127H9.15427L11.4425 25.1167Z" fill="white"/>
<path d="M25.1708 10.1238C25.1708 12.4715 24.5472 14.2898 23.2944 15.5786C22.053 16.8546 19.7133 17.4926 17.4193 17.4926L13.1574 25.1166L10.8691 19.3747V12.9948H18.0371C18.9009 12.9948 19.6961 12.446 20.0851 11.5847C20.8459 9.88764 19.7361 7.89077 18.0371 7.89077H6.86463L5.14844 3.4248H17.9913C20.3768 3.4248 22.1732 4.00538 23.3745 5.16653C24.5701 6.32768 25.1708 7.98009 25.1708 10.1238Z" fill="#FA2742"/>
<path d="M44.7847 6.68972C44.7847 7.78233 44.4607 8.62744 43.8126 9.22504C43.169 9.8182 42.2529 10.1147 41.064 10.1147H40.3198V13.3591H37.6719V3.5791H41.064C42.302 3.5791 43.2316 3.84891 43.8528 4.38853C44.4741 4.92815 44.7847 5.69521 44.7847 6.68972ZM40.3198 7.96072H40.8026C41.2003 7.96072 41.5154 7.84923 41.7478 7.62625C41.9847 7.40327 42.1032 7.09555 42.1032 6.70309C42.1032 6.04306 41.7367 5.71305 41.0037 5.71305H40.3198V7.96072Z" fill="#FA2742"/>
<path d="M49.818 9.80033V13.3591H47.1699V3.5791H50.3811C53.0448 3.5791 54.3767 4.54239 54.3767 6.46896C54.3767 7.60172 53.8224 8.47804 52.7141 9.09793L55.5699 13.3591H52.5666L50.4884 9.80033H49.818ZM49.818 7.81355H50.3141C51.2392 7.81355 51.7018 7.40549 51.7018 6.58938C51.7018 5.91597 51.2481 5.57926 50.3409 5.57926H49.818V7.81355Z" fill="#FA2742"/>
<path d="M66.4568 8.4553C66.4568 10.1009 66.0524 11.3519 65.2434 12.2081C64.4345 13.0644 63.2501 13.4925 61.6904 13.4925C60.153 13.4925 58.973 13.0621 58.1506 12.2014C57.3328 11.3407 56.9238 10.0876 56.9238 8.44193C56.9238 6.81415 57.3306 5.57213 58.144 4.71588C58.9619 3.85516 60.1485 3.4248 61.7038 3.4248C63.2635 3.4248 64.4457 3.8507 65.2501 4.7025C66.0546 5.55429 66.4568 6.80523 66.4568 8.4553ZM59.7127 8.4553C59.7127 10.3462 60.372 11.2916 61.6904 11.2916C62.3608 11.2916 62.8568 11.062 63.1786 10.6026C63.5049 10.1433 63.668 9.42748 63.668 8.4553C63.668 7.47864 63.5026 6.7584 63.1719 6.2946C62.8456 5.82633 62.3563 5.59221 61.7038 5.59221C60.3764 5.59221 59.7127 6.54657 59.7127 8.4553Z" fill="#FA2742"/>
<path d="M71.6586 13.3591H69.0508V3.5791H74.843V5.69967H71.6586V7.56604H74.595V9.68658H71.6586V13.3591Z" fill="#FA2742"/>
<path d="M83.0944 13.3591H77.2754V3.5791H83.0944V5.69967H79.9234V7.23826H82.8597V9.35878H79.9234V11.2051H83.0944V13.3591Z" fill="#FA2742"/>
<path d="M92.0426 10.3889C92.0426 10.9954 91.8884 11.5349 91.58 12.0077C91.2716 12.4759 90.8269 12.8416 90.246 13.1048C89.6649 13.3634 88.9833 13.4928 88.2013 13.4928C87.5487 13.4928 87.0013 13.4482 86.5588 13.3589C86.1163 13.2653 85.656 13.1048 85.1777 12.8774V10.5227C85.6828 10.7813 86.208 10.9842 86.7532 11.1314C87.2985 11.2741 87.799 11.3454 88.2549 11.3454C88.6482 11.3454 88.9365 11.2785 89.1196 11.1447C89.3029 11.0065 89.3945 10.8303 89.3945 10.6163C89.3945 10.4825 89.3565 10.3665 89.2805 10.2685C89.2091 10.1659 89.0906 10.0633 88.9252 9.96071C88.7643 9.85818 88.3308 9.64854 87.6247 9.33191C86.9856 9.04203 86.5051 8.76108 86.1834 8.48904C85.866 8.217 85.6291 7.90482 85.4728 7.55251C85.3208 7.2002 85.2448 6.78322 85.2448 6.30157C85.2448 5.40072 85.5733 4.69833 86.2303 4.19439C86.8873 3.69044 87.7901 3.43848 88.9386 3.43848C89.9532 3.43848 90.9878 3.67261 92.0426 4.14087L91.2314 6.18117C90.3152 5.76196 89.5242 5.55235 88.8582 5.55235C88.5141 5.55235 88.2638 5.61256 88.1073 5.73297C87.951 5.85338 87.8728 6.00278 87.8728 6.18117C87.8728 6.37293 87.971 6.54463 88.1677 6.69625C88.3688 6.84788 88.9096 7.12439 89.79 7.52575C90.6347 7.90482 91.2202 8.31288 91.5464 8.74993C91.8772 9.18252 92.0426 9.7288 92.0426 10.3889Z" fill="#FA2742"/>
<path d="M100.79 10.3889C100.79 10.9954 100.635 11.5349 100.328 12.0077C100.02 12.4759 99.5742 12.8416 98.9939 13.1048C98.4127 13.3634 97.7311 13.4928 96.9492 13.4928C96.2967 13.4928 95.7492 13.4482 95.3067 13.3589C94.8642 13.2653 94.4039 13.1048 93.9258 12.8774V10.5227C94.4302 10.7813 94.9551 10.9842 95.5008 11.1314C96.0464 11.2741 96.5461 11.3454 97.0027 11.3454C97.3955 11.3454 97.6842 11.2785 97.867 11.1447C98.0508 11.0065 98.1417 10.8303 98.1417 10.6163C98.1417 10.4825 98.1042 10.3665 98.0283 10.2685C97.957 10.1659 97.838 10.0633 97.673 9.96071C97.5117 9.85818 97.0786 9.64854 96.3726 9.33191C95.7333 9.04203 95.2523 8.76108 94.9308 8.48904C94.6139 8.217 94.3767 7.90482 94.2202 7.55251C94.0683 7.2002 93.9923 6.78322 93.9923 6.30157C93.9923 5.40072 94.3205 4.69833 94.9777 4.19439C95.6348 3.69044 96.5377 3.43848 97.6861 3.43848C98.7005 3.43848 99.7355 3.67261 100.79 4.14087L99.9792 6.18117C99.0623 5.76196 98.272 5.55235 97.6055 5.55235C97.2614 5.55235 97.0111 5.61256 96.8545 5.73297C96.6989 5.85338 96.6201 6.00278 96.6201 6.18117C96.6201 6.37293 96.7186 6.54463 96.9155 6.69625C97.1161 6.84788 97.657 7.12439 98.5373 7.52575C99.382 7.90482 99.968 8.31288 100.294 8.74993C100.625 9.18252 100.79 9.7288 100.79 10.3889Z" fill="#FA2742"/>
<path d="M103.129 13.3591V3.5791H105.79V13.3591H103.129Z" fill="#FA2742"/>
<path d="M117.911 8.4553C117.911 10.1009 117.507 11.3519 116.698 12.2081C115.889 13.0644 114.705 13.4925 113.145 13.4925C111.608 13.4925 110.428 13.0621 109.606 12.2014C108.788 11.3407 108.379 10.0876 108.379 8.44193C108.379 6.81415 108.786 5.57213 109.599 4.71588C110.417 3.85516 111.604 3.4248 113.159 3.4248C114.718 3.4248 115.9 3.8507 116.705 4.7025C117.509 5.55429 117.911 6.80523 117.911 8.4553ZM111.168 8.4553C111.168 10.3462 111.827 11.2916 113.145 11.2916C113.815 11.2916 114.311 11.062 114.634 10.6026C114.96 10.1433 115.123 9.42748 115.123 8.4553C115.123 7.47864 114.957 6.7584 114.627 6.2946C114.301 5.82633 113.812 5.59221 113.159 5.59221C111.832 5.59221 111.168 6.54657 111.168 8.4553Z" fill="#FA2742"/>
<path d="M129.836 13.3591H126.363L122.783 6.46896H122.723C122.808 7.55266 122.85 8.37993 122.85 8.95076V13.3591H120.504V3.5791H123.963L127.53 10.3757H127.57C127.507 9.39003 127.476 8.59845 127.476 8.00086V3.5791H129.836V13.3591Z" fill="#FA2742"/>
<path d="M138.792 13.3592L138.309 11.5263H135.125L134.629 13.3592H131.719L134.917 3.53906H138.45L141.688 13.3592H138.792ZM137.759 9.35888L137.337 7.75344C137.239 7.39667 137.118 6.93509 136.975 6.36871C136.837 5.80233 136.745 5.39651 136.701 5.15123C136.66 5.37867 136.58 5.75329 136.459 6.27506C136.342 6.79685 136.081 7.82479 135.674 9.35888H137.759Z" fill="#FA2742"/>
<path d="M143.578 13.3591V3.5791H146.227V11.2252H150.001V13.3591H143.578Z" fill="#FA2742"/>
</g>
<defs>
<clipPath id="clip0_201_3883">
<rect width="150" height="29" fill="white"/>
</clipPath>
</defs>
</svg>

<svg width="150" height="29" fill="none" xmlns="http://www.w3.org/2000/svg"><g clip-path="url(#a)"><path d="M0 2.854A2.857 2.857 0 0 1 2.86 0h22.883c1.58 0 2.86 1.278 2.86 2.854v22.834a2.857 2.857 0 0 1-2.86 2.854H2.86A2.857 2.857 0 0 1 0 25.688V2.854ZM41.126 26.274l-.297-.762h-.04c-.258.324-.525.55-.8.677-.271.124-.627.186-1.066.186-.54 0-.965-.154-1.277-.462-.308-.308-.462-.746-.462-1.314 0-.596.207-1.034.623-1.315.42-.284 1.05-.441 1.89-.471l.976-.03v-.246c0-.569-.292-.853-.875-.853-.45 0-.977.135-1.584.406l-.508-1.033a4.579 4.579 0 0 1 2.152-.507c.755 0 1.333.164 1.735.491.402.328.603.827.603 1.496v3.737h-1.07Zm-.453-2.599-.593.02c-.446.014-.778.094-.996.241-.218.148-.327.372-.327.673 0 .431.248.647.745.647.355 0 .638-.102.85-.306.214-.204.321-.475.321-.813v-.462ZM56.025 22.135c0 .301-.096.559-.287.773-.188.21-.466.346-.834.406v.04c.398.047.713.184.945.412.234.224.352.501.352.833 0 .545-.215.961-.644 1.249-.429.284-1.042.426-1.84.426h-2.881v-5.609h2.88c.772 0 1.348.126 1.73.376.386.248.579.612.579 1.094Zm-1.413 2.383c0-.22-.086-.38-.257-.476-.17-.1-.427-.15-.769-.15H52.37v1.324h1.247c.325 0 .572-.06.74-.181a.602.602 0 0 0 .256-.517Zm-.14-2.262c0-.342-.272-.512-.815-.512h-1.288v1.108h1.112c.325 0 .571-.046.739-.14.167-.094.251-.246.251-.456ZM69.125 20.665v1.149h-1.84v4.46h-1.534v-4.46h-1.845v-1.149h5.22ZM78.45 23.46c0 .556.09.975.272 1.26.184.284.483.426.895.426.409 0 .702-.14.88-.421.18-.285.271-.706.271-1.265 0-.555-.09-.971-.271-1.249-.181-.277-.478-.416-.89-.416-.41 0-.704.139-.885.416-.181.274-.272.69-.272 1.25Zm3.887 0c0 .913-.241 1.628-.724 2.143-.483.515-1.155.772-2.016.772-.54 0-1.016-.117-1.428-.35a2.37 2.37 0 0 1-.95-1.02c-.222-.44-.332-.956-.332-1.544 0-.917.24-1.63.719-2.138s1.153-.762 2.02-.762c.54 0 1.017.117 1.429.35.412.235.729.571.95 1.01.221.437.332.95.332 1.54ZM95.975 25.155h.82v3.131h-1.379v-2.012H90.66v-5.609h1.534v4.46h2.242v-4.46h1.539v4.49ZM107.131 21.65c-.325 0-.58.103-.764.31-.185.204-.291.495-.317.873h2.152c-.007-.378-.105-.669-.297-.873-.191-.207-.449-.31-.774-.31Zm.216 4.725c-.905 0-1.612-.249-2.122-.747-.509-.498-.764-1.204-.764-2.117 0-.94.234-1.666.704-2.178.473-.515 1.124-.772 1.956-.772.795 0 1.412.225 1.855.677.442.451.664 1.075.664 1.871v.743h-3.626c.017.435.147.774.388 1.018.241.244.58.366 1.016.366.338 0 .658-.035.96-.105.302-.07.617-.182.945-.336v1.184a3.516 3.516 0 0 1-.86.296c-.305.067-.677.1-1.116.1ZM119.473 20.665v2.157h2.141v-2.157h1.534v5.61h-1.534V23.96h-2.141v2.313h-1.534v-5.609h1.534ZM136.461 20.665v1.149h-1.84v4.46h-1.534v-4.46h-1.845v-1.149h5.219ZM147.654 26.375c-.661 0-1.179-.239-1.554-.717h-.08c.053.468.08.74.08.813v2.272h-1.534v-8.077h1.247l.216.727h.071c.358-.555.89-.832 1.594-.832.664 0 1.183.255 1.558.767.376.512.563 1.223.563 2.133 0 .598-.089 1.118-.266 1.56-.174.441-.424.777-.749 1.008a1.93 1.93 0 0 1-1.146.346Zm-.453-4.59c-.379 0-.656.117-.83.35-.174.232-.264.615-.271 1.15v.165c0 .602.088 1.034.266 1.295.181.26.466.391.855.391.688 0 1.031-.565 1.031-1.696 0-.552-.086-.965-.257-1.239-.167-.277-.432-.416-.794-.416Z" fill="#101010"/><path d="M11.443 25.117H5.722l-2.288-5.104h5.72l2.289 5.104Z" fill="#fff"/><path d="M25.17 10.124c0 2.348-.623 4.166-1.876 5.455-1.241 1.276-3.58 1.914-5.875 1.914l-4.262 7.624-2.288-5.742v-6.38h7.168c.864 0 1.66-.549 2.048-1.41.76-1.697-.349-3.694-2.048-3.694H6.865L5.148 3.425h12.843c2.386 0 4.182.58 5.384 1.742 1.195 1.16 1.796 2.813 1.796 4.957ZM44.785 6.69c0 1.092-.324 1.937-.972 2.535-.644.593-1.56.89-2.749.89h-.744v3.244h-2.648V3.58h3.392c1.238 0 2.168.27 2.789.81s.932 1.306.932 2.3ZM40.32 7.96h.483c.397 0 .712-.11.945-.334.237-.223.355-.53.355-.923 0-.66-.366-.99-1.1-.99h-.683v2.248ZM49.818 9.8v3.56H47.17V3.58h3.211c2.664 0 3.996.962 3.996 2.889 0 1.133-.555 2.009-1.663 2.629l2.856 4.261h-3.003L50.488 9.8h-.67Zm0-1.986h.496c.925 0 1.388-.409 1.388-1.225 0-.673-.454-1.01-1.361-1.01h-.523v2.235ZM66.457 8.455c0 1.646-.405 2.897-1.214 3.753-.808.856-1.993 1.284-3.553 1.284-1.537 0-2.717-.43-3.54-1.29-.817-.861-1.226-2.114-1.226-3.76 0-1.628.407-2.87 1.22-3.726.818-.86 2.005-1.291 3.56-1.291 1.56 0 2.742.426 3.546 1.277.805.852 1.207 2.103 1.207 3.753Zm-6.744 0c0 1.891.659 2.837 1.977 2.837.67 0 1.167-.23 1.489-.69.326-.459.489-1.175.489-2.147 0-.976-.165-1.697-.496-2.16-.326-.469-.816-.703-1.468-.703-1.328 0-1.991.955-1.991 2.863ZM71.659 13.36H69.05V3.58h5.792V5.7h-3.184v1.866h2.936v2.12h-2.936v3.673ZM83.094 13.36h-5.819V3.58h5.82V5.7h-3.172v1.538h2.937v2.12h-2.937v1.847h3.171v2.154ZM92.043 10.389c0 .606-.155 1.146-.463 1.619-.308.468-.753.834-1.334 1.097-.581.258-1.263.388-2.045.388-.652 0-1.2-.045-1.642-.134a6.236 6.236 0 0 1-1.381-.482v-2.354c.505.258 1.03.461 1.575.608a5.968 5.968 0 0 0 1.502.214c.393 0 .681-.067.865-.2a.635.635 0 0 0 .274-.529.551.551 0 0 0-.114-.348 1.193 1.193 0 0 0-.355-.307c-.16-.103-.594-.312-1.3-.63-.64-.289-1.12-.57-1.442-.842a2.637 2.637 0 0 1-.71-.936c-.152-.353-.228-.77-.228-1.251 0-.901.328-1.604.985-2.108s1.56-.756 2.709-.756c1.014 0 2.049.235 3.104.703l-.812 2.04c-.916-.419-1.707-.629-2.373-.629-.344 0-.594.06-.75.181a.546.546 0 0 0-.235.448c0 .192.098.364.295.515.2.152.742.428 1.622.83.845.379 1.43.787 1.756 1.224.331.433.497.979.497 1.639ZM100.79 10.389c0 .606-.155 1.146-.462 1.619-.308.468-.754.834-1.334 1.097-.581.258-1.263.388-2.045.388-.652 0-1.2-.045-1.642-.134a6.232 6.232 0 0 1-1.381-.482v-2.354c.504.258 1.03.461 1.575.608a5.967 5.967 0 0 0 1.502.214c.392 0 .681-.067.864-.2a.634.634 0 0 0 .275-.529.551.551 0 0 0-.114-.348 1.197 1.197 0 0 0-.355-.307c-.161-.103-.594-.312-1.3-.63-.64-.289-1.12-.57-1.442-.842a2.645 2.645 0 0 1-.71-.936c-.153-.353-.229-.77-.229-1.251 0-.901.328-1.604.986-2.108.657-.504 1.56-.756 2.708-.756 1.014 0 2.05.235 3.104.703l-.81 2.04c-.918-.419-1.708-.629-2.374-.629-.345 0-.595.06-.751.181a.548.548 0 0 0-.235.448c0 .192.099.364.295.515.201.152.742.428 1.622.83.845.379 1.431.787 1.757 1.224.331.433.496.979.496 1.639ZM103.129 13.36V3.58h2.661v9.78h-2.661ZM117.911 8.455c0 1.646-.404 2.897-1.213 3.753-.809.856-1.993 1.284-3.553 1.284-1.537 0-2.717-.43-3.539-1.29-.818-.861-1.227-2.114-1.227-3.76 0-1.628.407-2.87 1.22-3.726.818-.86 2.005-1.291 3.56-1.291 1.559 0 2.741.426 3.546 1.277.804.852 1.206 2.103 1.206 3.753Zm-6.743 0c0 1.891.659 2.837 1.977 2.837.67 0 1.166-.23 1.489-.69.326-.459.489-1.175.489-2.147 0-.976-.166-1.697-.496-2.16-.326-.469-.815-.703-1.468-.703-1.327 0-1.991.955-1.991 2.863ZM129.836 13.36h-3.473l-3.58-6.891h-.06c.085 1.084.127 1.91.127 2.482v4.408h-2.346V3.58h3.459l3.567 6.797h.04A38.964 38.964 0 0 1 127.476 8V3.579h2.36v9.78ZM138.792 13.36l-.483-1.834h-3.184l-.496 1.833h-2.91l3.198-9.82h3.533l3.238 9.82h-2.896Zm-1.033-4.001-.422-1.606a71.137 71.137 0 0 1-.362-1.384 23.5 23.5 0 0 1-.274-1.218c-.041.228-.121.602-.242 1.124-.117.522-.378 1.55-.785 3.084h2.085ZM143.578 13.36V3.58h2.649v7.645h3.774v2.134h-6.423Z" fill="#FA2742"/></g><defs><clipPath id="a"><path fill="#fff" d="M0 0h150v29H0z"/></clipPath></defs></svg>
